icon-themes/sifr_svg/cmd/lc_sidebar.svg

<svg viewBox="0 0 24 24" xmlns="http://www.w3.org/2000/svg"><path d="m2 2v20h14v-2-1h-2v1h-10v-16h10v1h2v-3zm15 0v3h2v14h-2v3h5v-20zm-4 6c-.30945 0-.55232.0903-.75.28125-1.016078.769594-2.524849 2.321099-3.25 2.939453v1.615235l3.25 2.882812c.19768.19095.44055.28125.75.28125h.587891.412109v-1c-.01522-.256441-.12983-.528462-.3125-.71875l-1.371094-1.28125h4.683594v-2h-4.683594l1.371094-1.28125c.18267-.190301.3125-.494728.3125-.71875v-1h-.412109z" fill="#555753"/></svg>

<svg xmlns="http://www.w3.org/2000/svg" viewBox="0 0 24 24">
  <path
     style="fill:#555753"
     d="m 2,2 v 20 h 14 v -2 -1 h -2 v 1 H 4 V 4 h 10 v 1 h 2 V 2 Z m 15,0 v 3 h 2 v 14 h -2 v 3 h 5 V 2 Z M 13,8 C 12.69055,8 12.44768,8.0903 12.25,8.28125 11.233922,9.050844 9.725151,10.602349 9,11.220703 v 1.615235 l 3.25,2.882812 C 12.44768,15.9097 12.69055,16 13,16 H 13.587891 14 v -1 c -0.01522,-0.256441 -0.12983,-0.528462 -0.3125,-0.71875 L 12.316406,13 H 17 V 11 H 12.316406 L 13.6875,9.71875 C 13.87017,9.528449 14,9.224022 14,9 V 8 h -0.412109 z"
     />
</svg>
